X: 9
T: Lochgilphead
C: Ian Findlay 1976
T: Dance: Jack's the Lad or The Nonagenarian
N: For Jack Brown's ninetieth birthday.
B: Social Dances 2002
R: strathspey
Z: 2014 John Chambers <jc:trillian.mit.edu>
M: C_
L: 1/8
K: D
|:\
"D"d<d c>d B>d A>f | "D"d<d f>a "Em"g/f/e/d/ B>c |\
"D"d<d c>d B>d A>f | "A7"(3agf (3edc "D"d<D D> ||
A |\
"D"d<d c>d B>d A>f | "D"d<d f>a "Em"g/f/e/d/ B>c |\
"D"(3dfd "Em"(3ege "D"(3fag fed | "A7"(3cBA (3GFE "D"F<D D> |]
A |\
"D"f<f a>g f>e d>c | "Em"B<B e>f "A7"(3gfe (3dcB |\
"D"A<A f>a g>e f>d | "A7"(3BAG A>c "D"d<D D> ||
d |\
"D"f<f a>g f>e d>c | "Em"B<B e>f "A7"(3gfe (3cBA |\
"D"(3dfd "Em"(3ege "D"(3fag fed | "A7"(3cBA (3GFE "D"F<D D2 :|

%%sep 1 1 500
%%sep 1 1 500
